communes/5750.svg

<?xml version="1.0" encoding="UTF-8" standalone="no"?>
<svg
   xmlns:dc="http://purl.org/dc/elements/1.1/"
   xmlns:cc="http://creativecommons.org/ns#"
   xmlns:rdf="http://www.w3.org/1999/02/22-rdf-syntax-ns#"
   xmlns:svg="http://www.w3.org/2000/svg"
   xmlns="http://www.w3.org/2000/svg"
   xmlns:xlink="http://www.w3.org/1999/xlink"
   xmlns:sodipodi="http://sodipodi.sourceforge.net/DTD/sodipodi-0.dtd"
   xmlns:inkscape="http://www.inkscape.org/namespaces/inkscape"
   height="763"
   width="603"
   version="1.0"
   id="svg20"
   sodipodi:version="0.32"
   inkscape:version="0.46"
   sodipodi:docname="Les_Clees-coat_of_arms.svg"
   sodipodi:docbase="C:\Documents and Settings\Steve\Bureau\Blason Villages Suisse pour Wikipédia (par Delta-9)"
   inkscape:output_extension="org.inkscape.output.svg.inkscape">
  <metadata
     id="metadata31">
    <rdf:RDF>
      <cc:Work
         rdf:about="">
        <dc:format>image/svg+xml</dc:format>
        <dc:type
           rdf:resource="http://purl.org/dc/dcmitype/StillImage" />
        <dc:date>07-AUG-2006</dc:date>
        <dc:creator>
          <cc:Agent>
            <dc:title>Jérôme BLUM (wagner51)</dc:title>
          </cc:Agent>
        </dc:creator>
        <cc:license
           rdf:resource="http://creativecommons.org/licenses/GPL/2.0/" />
        <dc:coverage />
        <dc:description>Gabarit pour le Projet:Blasons de WIkipédia</dc:description>
        <dc:subject>
          <rdf:Bag>
            <rdf:li>blason suisse modèle gabarit projet blasons</rdf:li>
          </rdf:Bag>
        </dc:subject>
        <dc:language>fr</dc:language>
        <dc:title>Gabrit d'un blason suisse</dc:title>
      </cc:Work>
      <cc:License
         rdf:about="http://creativecommons.org/licenses/GPL/2.0/">
        <cc:permits
           rdf:resource="http://web.resource.org/cc/Reproduction" />
        <cc:permits
           rdf:resource="http://web.resource.org/cc/Distribution" />
        <cc:requires
           rdf:resource="http://web.resource.org/cc/Notice" />
        <cc:permits
           rdf:resource="http://web.resource.org/cc/DerivativeWorks" />
        <cc:requires
           rdf:resource="http://web.resource.org/cc/ShareAlike" />
        <cc:requires
           rdf:resource="http://web.resource.org/cc/SourceCode" />
      </cc:License>
    </rdf:RDF>
  </metadata>
  <defs
     id="defs29"><inkscape:perspective
   sodipodi:type="inkscape:persp3d"
   inkscape:vp_x="0 : 381.5 : 1"
   inkscape:vp_y="0 : 1000 : 0"
   inkscape:vp_z="603 : 381.5 : 1"
   inkscape:persp3d-origin="301.5 : 254.33333 : 1"
   id="perspective28" />
<linearGradient
   id="linearGradient2893">
  <stop
     style="stop-color:#ffffff;stop-opacity:0.3137255;"
     offset="0"
     id="stop2895" />
  <stop
     id="stop2897"
     offset="0.19"
     style="stop-color:#ffffff;stop-opacity:0.25098041;" />
  <stop
     style="stop-color:#6b6b6b;stop-opacity:0.1254902;"
     offset="0.60000002"
     id="stop2901" />
  <stop
     style="stop-color:#000000;stop-opacity:0.1254902;"
     offset="1"
     id="stop2899" />
</linearGradient>
<linearGradient
   id="linearGradient2955">
  <stop
     style="stop-color:white;stop-opacity:0;"
     offset="0"
     id="stop2965" />
  <stop
     style="stop-color:black;stop-opacity:0.64583331;"
     offset="1"
     id="stop2959" />
</linearGradient>
<radialGradient
   inkscape:collect="always"
   xlink:href="#linearGradient2893"
   id="radialGradient3236"
   gradientUnits="userSpaceOnUse"
   gradientTransform="matrix(1.215027,1.531577e-24,1.464684e-23,1.266667,-839.1924,-490.4894)"
   cx="858.04236"
   cy="579.93323"
   fx="858.04236"
   fy="579.93323"
   r="300" />
<inkscape:perspective
   id="perspective2580"
   inkscape:persp3d-origin="297.63751 : 280.63 : 1"
   inkscape:vp_z="595.27502 : 420.94501 : 1"
   inkscape:vp_y="0 : 1000 : 0"
   inkscape:vp_x="0 : 420.94501 : 1"
   sodipodi:type="inkscape:persp3d" />

	
	

	

		
		
		
	
		
		
	
			
			
			
			
			
		
			
				
			
			
				
		
			
				
			
				
			
				
			
				
			
				
			
		
			
				
			
			
		
			
				
			
				
			
				
			
				
			
				
			
				
		</defs>
  <sodipodi:namedview
     inkscape:window-height="968"
     inkscape:window-width="1280"
     inkscape:pageshadow="2"
     inkscape:pageopacity="0.0"
     guidetolerance="10.0"
     gridtolerance="10.0"
     objecttolerance="10.0"
     borderopacity="1.0"
     bordercolor="#666666"
     pagecolor="#ffffff"
     id="base"
     inkscape:zoom="0.92652193"
     inkscape:cx="173.53758"
     inkscape:cy="399.00713"
     inkscape:window-x="1280"
     inkscape:window-y="22"
     inkscape:current-layer="layer2"
     showgrid="false"
     showguides="true"
     inkscape:guide-bbox="true">
    <sodipodi:guide
       orientation="horizontal"
       position="761.5"
       id="guide1885" />
    <sodipodi:guide
       orientation="vertical"
       position="1.5"
       id="guide1887" />
    <sodipodi:guide
       orientation="horizontal"
       position="1.5"
       id="guide1889" />
    <sodipodi:guide
       orientation="vertical"
       position="601.5"
       id="guide1891" />
    <sodipodi:guide
       orientation="vertical"
       position="301.50081"
       id="guide1893" />
  </sodipodi:namedview>
  <desc
     id="desc22">Coat of Arms of Canton of Freiburg (Fribourg)</desc>
  <g
     inkscape:groupmode="layer"
     id="layer1"
     inkscape:label="Fond écu"
     style="opacity:1"
     sodipodi:insensitive="true">
    <path
       id="path1899"
       d="M 1.5,1.49998 L 1.5,460.3679 C 1.5,626.6785 135.81456,761.5 301.49999,761.5 C 467.18543,761.5 601.5,626.6785 601.5,460.3679 L 601.5,1.49998 L 1.5,1.49998 z "
       style="fill:#e20909;fill-opacity:1" />
  </g>
  <g
     inkscape:groupmode="layer"
     id="layer2"
     inkscape:label="Meubles"
     style="opacity:1;display:inline"
     sodipodi:insensitive="true">
    <g
       id="g2736">
      <rect
         style="fill:#ffffff;stroke:#000000;stroke-width:3;stroke-linecap:round;stroke-linejoin:round"
         x="113.837"
         y="200.112"
         width="375.32401"
         height="38.480999"
         id="rect2519" />
      <polygon
         transform="translate(-3.8e-2,-4.5e-2)"
         style="fill:#ffffff;stroke:#000000;stroke-width:3;stroke-linecap:round;stroke-linejoin:round"
         points="423.06,460.45 113.875,250.868 113.875,238.638 180.014,238.638 489.199,448.22 489.199,460.45 423.06,460.45 "
         id="polygon2521" />
      <rect
         style="fill:#ffffff;stroke:#000000;stroke-width:3;stroke-linecap:round;stroke-linejoin:round"
         x="113.837"
         y="460.40503"
         width="375.32401"
         height="38.480999"
         id="rect2523" />
      <path
         style="fill:#ffffff;stroke:#000000;stroke-width:3;stroke-linecap:round;stroke-linejoin:round"
         d="M 110.47,164.465 C 98.316,164.465 88.463,169.887 88.463,176.576 L 88.463,545.751 L 132.477,545.751 L 132.477,176.576 C 132.477,169.888 122.624,164.465 110.47,164.465 z"
         id="path2527" />
      <path
         style="fill:#ffffff;stroke:#000000;stroke-width:3;stroke-linecap:round;stroke-linejoin:round"
         d="M 205.984,164.465 C 193.83,164.465 183.978,169.887 183.978,176.576 L 183.978,545.751 L 227.991,545.751 L 227.991,176.576 C 227.991,169.888 218.139,164.465 205.984,164.465 z"
         id="path2529" />
      <path
         style="fill:#ffffff;stroke:#000000;stroke-width:3;stroke-linecap:round;stroke-linejoin:round"
         d="M 301.499,164.465 C 289.345,164.465 279.492,169.887 279.492,176.576 L 279.492,545.751 L 323.506,545.751 L 323.506,176.576 C 323.506,169.888 313.653,164.465 301.499,164.465 z"
         id="path2531" />
      <path
         style="fill:#ffffff;stroke:#000000;stroke-width:3;stroke-linecap:round;stroke-linejoin:round"
         d="M 397.014,164.465 C 409.168,164.465 419.021,169.887 419.021,176.576 L 419.021,545.751 L 375.006,545.751 L 375.006,176.576 C 375.006,169.888 384.858,164.465 397.014,164.465 z"
         id="path2533" />
      <path
         style="fill:#ffffff;stroke:#000000;stroke-width:3;stroke-linecap:round;stroke-linejoin:round"
         d="M 492.528,164.465 C 504.681,164.465 514.535,169.887 514.535,176.576 L 514.535,545.751 L 470.522,545.751 L 470.522,176.576 C 470.522,169.888 480.373,164.465 492.528,164.465 z"
         id="path2535" />
      <circle
         transform="translate(-3.8e-2,-4.5e-2)"
         style="stroke:#000000;stroke-width:2;stroke-linecap:round;stroke-linejoin:round"
         sodipodi:ry="3.0929999"
         sodipodi:rx="3.0929999"
         sodipodi:cy="479.69101"
         sodipodi:cx="102.854"
         cx="102.854"
         cy="479.69101"
         r="3.0929999"
         id="circle2541" />
      <circle
         transform="translate(-3.8e-2,-4.5e-2)"
         style="stroke:#000000;stroke-width:2;stroke-linecap:round;stroke-linejoin:round"
         sodipodi:ry="3.0929999"
         sodipodi:rx="3.0929999"
         sodipodi:cy="479.69101"
         sodipodi:cx="118.021"
         cx="118.021"
         cy="479.69101"
         r="3.0929999"
         id="circle2543" />
      <circle
         transform="translate(-3.8e-2,-4.5e-2)"
         style="stroke:#000000;stroke-width:2;stroke-linecap:round;stroke-linejoin:round"
         sodipodi:ry="3.0929999"
         sodipodi:rx="3.0929999"
         sodipodi:cy="479.69101"
         sodipodi:cx="206.022"
         cx="206.022"
         cy="479.69101"
         r="3.0929999"
         id="circle2545" />
      <circle
         transform="translate(-3.8e-2,-4.5e-2)"
         style="stroke:#000000;stroke-width:2;stroke-linecap:round;stroke-linejoin:round"
         sodipodi:ry="3.0940001"
         sodipodi:rx="3.0940001"
         sodipodi:cy="479.69101"
         sodipodi:cx="301.53699"
         cx="301.53699"
         cy="479.69101"
         r="3.0940001"
         id="circle2547" />
      <circle
         transform="translate(-3.8e-2,-4.5e-2)"
         style="stroke:#000000;stroke-width:2;stroke-linecap:round;stroke-linejoin:round"
         sodipodi:ry="3.0929999"
         sodipodi:rx="3.0929999"
         sodipodi:cy="479.69101"
         sodipodi:cx="397.05099"
         cx="397.05099"
         cy="479.69101"
         r="3.0929999"
         id="circle2549" />
      <circle
         transform="translate(-3.8e-2,-4.5e-2)"
         style="stroke:#000000;stroke-width:2;stroke-linecap:round;stroke-linejoin:round"
         sodipodi:ry="3.0929999"
         sodipodi:rx="3.0929999"
         sodipodi:cy="479.69101"
         sodipodi:cx="492.56601"
         cx="492.56601"
         cy="479.69101"
         r="3.0929999"
         id="circle2551" />
      <circle
         transform="translate(-3.8e-2,-4.5e-2)"
         style="stroke:#000000;stroke-width:2;stroke-linecap:round;stroke-linejoin:round"
         sodipodi:ry="3.0929999"
         sodipodi:rx="3.0929999"
         sodipodi:cy="285.21701"
         sodipodi:cx="206.022"
         cx="206.022"
         cy="285.21701"
         r="3.0929999"
         id="circle2555" />
      <circle
         transform="translate(-3.8e-2,-4.5e-2)"
         style="stroke:#000000;stroke-width:2;stroke-linecap:round;stroke-linejoin:round"
         sodipodi:ry="3.0940001"
         sodipodi:rx="3.0940001"
         sodipodi:cy="350.04999"
         sodipodi:cx="301.53699"
         cx="301.53699"
         cy="350.04999"
         r="3.0940001"
         id="circle2557" />
      <circle
         transform="translate(-3.8e-2,-4.5e-2)"
         style="stroke:#000000;stroke-width:2;stroke-linecap:round;stroke-linejoin:round"
         sodipodi:ry="3.0929999"
         sodipodi:rx="3.0929999"
         sodipodi:cy="414.70001"
         sodipodi:cx="397.05099"
         cx="397.05099"
         cy="414.70001"
         r="3.0929999"
         id="circle2559" />
      <circle
         transform="translate(-3.8e-2,-4.5e-2)"
         style="stroke:#000000;stroke-width:2;stroke-linecap:round;stroke-linejoin:round"
         sodipodi:ry="3.0929999"
         sodipodi:rx="3.0929999"
         sodipodi:cy="219.397"
         sodipodi:cx="110.508"
         cx="110.508"
         cy="219.397"
         r="3.0929999"
         id="circle2563" />
      <circle
         transform="translate(-3.8e-2,-4.5e-2)"
         style="stroke:#000000;stroke-width:2;stroke-linecap:round;stroke-linejoin:round"
         sodipodi:ry="3.0929999"
         sodipodi:rx="3.0929999"
         sodipodi:cy="219.397"
         sodipodi:cx="206.022"
         cx="206.022"
         cy="219.397"
         r="3.0929999"
         id="circle2565" />
      <circle
         transform="translate(-3.8e-2,-4.5e-2)"
         style="stroke:#000000;stroke-width:2;stroke-linecap:round;stroke-linejoin:round"
         sodipodi:ry="3.0940001"
         sodipodi:rx="3.0940001"
         sodipodi:cy="219.397"
         sodipodi:cx="301.53699"
         cx="301.53699"
         cy="219.397"
         r="3.0940001"
         id="circle2567" />
      <circle
         transform="translate(-3.8e-2,-4.5e-2)"
         style="stroke:#000000;stroke-width:2;stroke-linecap:round;stroke-linejoin:round"
         sodipodi:ry="3.0929999"
         sodipodi:rx="3.0929999"
         sodipodi:cy="219.397"
         sodipodi:cx="397.05099"
         cx="397.05099"
         cy="219.397"
         r="3.0929999"
         id="circle2569" />
      <circle
         transform="translate(-3.8e-2,-4.5e-2)"
         style="stroke:#000000;stroke-width:2;stroke-linecap:round;stroke-linejoin:round"
         sodipodi:ry="3.0929999"
         sodipodi:rx="3.0929999"
         sodipodi:cy="219.397"
         sodipodi:cx="484.983"
         cx="484.983"
         cy="219.397"
         r="3.0929999"
         id="circle2571" />
      <circle
         transform="translate(-3.8e-2,-4.5e-2)"
         style="stroke:#000000;stroke-width:2;stroke-linecap:round;stroke-linejoin:round"
         sodipodi:ry="3.0929999"
         sodipodi:rx="3.0929999"
         sodipodi:cy="219.397"
         sodipodi:cx="500.14999"
         cx="500.14999"
         cy="219.397"
         r="3.0929999"
         id="circle2573" />
    </g>
  </g>
  <g
     inkscape:groupmode="layer"
     id="layer3"
     inkscape:label="Reflet final"
     style="display:inline"
     sodipodi:insensitive="true">
    <path
       style="fill:url(#radialGradient3236);fill-opacity:1"
       d="M 1.5,1.5 L 1.5,460.3679 C 1.5,626.67854 135.81454,761.5 301.49993,761.5 C 467.1854,761.5 601.5,626.67854 601.5,460.3679 L 601.5,1.5 L 1.5,1.5 z "
       id="path2346" />
  </g>
  <g
     inkscape:groupmode="layer"
     id="layer4"
     inkscape:label="Contour final"
     style="display:inline"
     sodipodi:insensitive="true">
    <path
       style="fill:none;fill-opacity:1;stroke:#000000;stroke-width:3;stroke-miterlimit:4;stroke-dasharray:none;stroke-opacity:1"
       d="M 1.5,1.5 L 1.5,460.36794 C 1.5,626.67854 135.81454,761.5 301.49993,761.5 C 467.1854,761.5 601.5,626.67854 601.5,460.36794 L 601.5,1.5 L 1.5,1.5 z "
       id="path3239" />
  </g>
</svg>

<?xml version="1.0" encoding="UTF-8"?>
<svg version="1.0" viewBox="0 0 603 763" xmlns="http://www.w3.org/2000/svg" xmlns:cc="http://creativecommons.org/ns#" xmlns:dc="http://purl.org/dc/elements/1.1/" xmlns:rdf="http://www.w3.org/1999/02/22-rdf-syntax-ns#" xmlns:xlink="http://www.w3.org/1999/xlink">
<metadata>
<rdf:RDF>
<cc:Work rdf:about="">
<dc:format>image/svg+xml</dc:format>
<dc:type rdf:resource="http://purl.org/dc/dcmitype/StillImage"/>
<dc:date>07-AUG-2006</dc:date>
<dc:creator>
<cc:Agent>
<dc:title>Jérôme BLUM (wagner51)</dc:title>
</cc:Agent>
</dc:creator>
<cc:license rdf:resource="http://creativecommons.org/licenses/GPL/2.0/"/>
<dc:coverage/>
<dc:description>Gabarit pour le Projet:Blasons de WIkipédia</dc:description>
<dc:subject>
<rdf:Bag>
<rdf:li>blason suisse modèle gabarit projet blasons</rdf:li>
</rdf:Bag>
</dc:subject>
<dc:language>fr</dc:language>
<dc:title>Gabrit d'un blason suisse</dc:title>
</cc:Work>
<cc:License rdf:about="http://creativecommons.org/licenses/GPL/2.0/">
<cc:permits rdf:resource="http://web.resource.org/cc/Reproduction"/>
<cc:permits rdf:resource="http://web.resource.org/cc/Distribution"/>
<cc:requires rdf:resource="http://web.resource.org/cc/Notice"/>
<cc:permits rdf:resource="http://web.resource.org/cc/DerivativeWorks"/>
<cc:requires rdf:resource="http://web.resource.org/cc/ShareAlike"/>
<cc:requires rdf:resource="http://web.resource.org/cc/SourceCode"/>
</cc:License>
</rdf:RDF>
</metadata>
<defs>
<radialGradient id="a" cx="858.04" cy="579.93" r="300" gradientTransform="matrix(1.215 1.5316e-24 1.4647e-23 1.2667 -839.19 -490.49)" gradientUnits="userSpaceOnUse">
<stop stop-color="#fff" stop-opacity=".31373" offset="0"/>
<stop stop-color="#fff" stop-opacity=".25098" offset=".19"/>
<stop stop-color="#6b6b6b" stop-opacity=".12549" offset=".6"/>
<stop stop-opacity=".12549" offset="1"/>
</radialGradient>
</defs>
<desc>Coat of Arms of Canton of Freiburg (Fribourg)</desc>
<g>
<path d="m1.5 1.5v458.87c0 166.31 134.31 301.13 300 301.13 165.69 0 300-134.82 300-301.13v-458.87h-600z" fill="#e20909"/>
</g>
<g>
<g stroke="#000" stroke-linecap="round" stroke-linejoin="round">
<rect x="113.84" y="200.11" width="375.32" height="38.481" fill="#fff" stroke-width="3"/>
<polygon transform="translate(-.038 -.045)" points="423.06 460.45 113.88 250.87 113.88 238.64 180.01 238.64 489.2 448.22 489.2 460.45" fill="#fff" stroke-width="3"/>
<rect x="113.84" y="460.41" width="375.32" height="38.481" fill="#fff" stroke-width="3"/>
<path d="m110.47 164.46c-12.154 0-22.007 5.422-22.007 12.111v369.18h44.014v-369.18c0-6.688-9.853-12.111-22.007-12.111z" fill="#fff" stroke-width="3"/>
<path d="m205.98 164.46c-12.154 0-22.006 5.422-22.006 12.111v369.18h44.013v-369.18c0-6.688-9.852-12.111-22.007-12.111z" fill="#fff" stroke-width="3"/>
<path d="m301.5 164.46c-12.154 0-22.007 5.422-22.007 12.111v369.18h44.014v-369.18c0-6.688-9.853-12.111-22.007-12.111z" fill="#fff" stroke-width="3"/>
<path d="m397.01 164.46c12.154 0 22.007 5.422 22.007 12.111v369.18h-44.015v-369.18c0-6.688 9.852-12.111 22.008-12.111z" fill="#fff" stroke-width="3"/>
<path d="m492.53 164.46c12.153 0 22.007 5.422 22.007 12.111v369.18h-44.013v-369.18c0-6.688 9.851-12.111 22.006-12.111z" fill="#fff" stroke-width="3"/>
<circle transform="translate(-.038 -.045)" cx="102.85" cy="479.69" r="3.093" stroke-width="2"/>
<circle transform="translate(-.038 -.045)" cx="118.02" cy="479.69" r="3.093" stroke-width="2"/>
<circle transform="translate(-.038 -.045)" cx="206.02" cy="479.69" r="3.093" stroke-width="2"/>
<circle transform="translate(-.038 -.045)" cx="301.54" cy="479.69" r="3.094" stroke-width="2"/>
<circle transform="translate(-.038 -.045)" cx="397.05" cy="479.69" r="3.093" stroke-width="2"/>
<circle transform="translate(-.038 -.045)" cx="492.57" cy="479.69" r="3.093" stroke-width="2"/>
<circle transform="translate(-.038 -.045)" cx="206.02" cy="285.22" r="3.093" stroke-width="2"/>
<circle transform="translate(-.038 -.045)" cx="301.54" cy="350.05" r="3.094" stroke-width="2"/>
<circle transform="translate(-.038 -.045)" cx="397.05" cy="414.7" r="3.093" stroke-width="2"/>
<circle transform="translate(-.038 -.045)" cx="110.51" cy="219.4" r="3.093" stroke-width="2"/>
<circle transform="translate(-.038 -.045)" cx="206.02" cy="219.4" r="3.093" stroke-width="2"/>
<circle transform="translate(-.038 -.045)" cx="301.54" cy="219.4" r="3.094" stroke-width="2"/>
<circle transform="translate(-.038 -.045)" cx="397.05" cy="219.4" r="3.093" stroke-width="2"/>
<circle transform="translate(-.038 -.045)" cx="484.98" cy="219.4" r="3.093" stroke-width="2"/>
<circle transform="translate(-.038 -.045)" cx="500.15" cy="219.4" r="3.093" stroke-width="2"/>
</g>
</g>
<g>
<path d="m1.5 1.5v458.87c0 166.31 134.31 301.13 300 301.13 165.69 0 300-134.82 300-301.13v-458.87h-600z" fill="url(#a)"/>
<path d="m1.5 1.5v458.87c0 166.31 134.31 301.13 300 301.13 165.69 0 300-134.82 300-301.13v-458.87h-600z" fill="none" stroke="#000" stroke-width="3"/>
</g>
</svg>
